X: 27181
T: Miss Monaghan
R: reel
M: 4/4
K: Amajor
|:A,3 B, CE E2|DEFD CE E2|FEFE CEAB|cBAB cBBA|
A,3 B, CE E2|EFED CE E2|FAED CEAF|1 ECB,E CA,B,C:|2 ECB,D CA, A,2||
ceef ecAc|dBcB BAFB|ABAF EFAB|cBAB cB B2|
ceef ecAc|dBcB BAFG|A2 AF EFAF|ECB,D CA, A,2|
ceef ecAc|dfec BAFA|FGAF E3 B|cBAB cB B2|
a2 fa fece|decB BAFA|FAAF EF F2|ECB,E CEB,C||

